picto/urinal.svg

<svg class="color-immutable" width="24" height="24" viewBox="0 0 24 24" fill="none" xmlns="http://www.w3.org/2000/svg"><path d="M0 22.5V1.5C0 0.675 0.675 0 1.5 0H22.5C23.325 0 24 0.675 24 1.5V22.5C24 23.325 23.325 24 22.5 24H1.5C0.675 24 0 23.325 0 22.5Z" fill="#2D327D"/><path d="M13.5 4.48801C13.5 3.66001 12.828 2.98801 12 2.98801C11.172 2.98801 10.5 3.66001 10.5 4.48801C10.5 5.31601 11.172 5.98801 12 5.98801C12.828 5.98801 13.5 5.31601 13.5 4.48801Z" fill="white"/><path d="M8.68103 7.875V12.966C8.68103 13.261 8.92003 13.5 9.21503 13.5C9.51003 13.5 9.74903 13.261 9.74903 12.966V8.625H10.218V20.231C10.218 20.655 10.562 21 10.987 21C11.411 21 11.756 20.656 11.756 20.231V13.481H12.243V20.231C12.243 20.655 12.587 21 13.012 21C13.436 21 13.781 20.656 13.781 20.231V8.625H14.25V12.966C14.25 13.261 14.489 13.5 14.785 13.5C15.08 13.5 15.319 13.261 15.319 12.966V7.875C15.319 7.047 14.647 6.375 13.819 6.375H10.182C9.35303 6.375 8.68103 7.047 8.68103 7.875Z" fill="white"/><path d="M21 2.996C20.898 2.996 20.815 3.079 20.815 3.181V8.943C20.784 8.952 20.757 8.97 20.738 8.994L19.891 9.897C19.808 9.976 19.748 10.041 19.725 10.158C19.716 10.2 19.71 10.286 19.709 10.34C19.624 12.899 18.709 13.773 18.347 13.923C18.294 13.945 18.015 14.077 18.036 14.438C18.156 16.437 19.245 18.08 20.423 18.08H20.814V20.806C20.814 20.908 20.897 20.991 20.999 20.991C21.101 20.991 21.184 20.908 21.184 20.806V3.181C21.185 3.079 21.102 2.996 21 2.996Z" fill="white"/></svg>

<svg class="color-immutable" width="24" height="24" viewBox="0 0 24 24" fill="none" xmlns="http://www.w3.org/2000/svg"><g clip-path="url(#a)"><path d="M0 22.5v-21C0 .675.675 0 1.5 0h21c.825 0 1.5.675 1.5 1.5v21c0 .825-.675 1.5-1.5 1.5h-21C.675 24 0 23.325 0 22.5Z" fill="#2D327D"/><path d="M13.5 4.488a1.5 1.5 0 1 0-3.001.001 1.5 1.5 0 0 0 3.001-.001ZM8.681 7.875v5.091a.534.534 0 1 0 1.068 0V8.625h.469v11.606a.77.77 0 0 0 1.538 0v-6.75h.487v6.75a.77.77 0 0 0 1.538 0V8.625h.469v4.341a.534.534 0 0 0 1.069 0V7.875a1.5 1.5 0 0 0-1.5-1.5h-3.637a1.5 1.5 0 0 0-1.501 1.5ZM21 2.996a.185.185 0 0 0-.185.185v5.762a.152.152 0 0 0-.077.051l-.847.903c-.083.079-.143.144-.166.261a1.233 1.233 0 0 0-.016.182c-.085 2.559-1 3.433-1.362 3.583a.51.51 0 0 0-.311.515c.12 1.999 1.209 3.642 2.387 3.642h.391v2.726a.185.185 0 0 0 .37 0V3.181A.184.184 0 0 0 21 2.996Z" fill="#fff"/></g><defs><clipPath id="a"><path fill="#fff" d="M0 0h24v24H0z"/></clipPath></defs></svg>
